X: 2289
T: the MUNSTER GIMLET
R: Irish Jig.
%R: slip-jig
N: This is version 1, for ABC software that doesn't understand voice overlays.
B: James Kerr "Merry Melodies" v.2 p.32 #289
Z: 2016 John Chambers <jc:trillian.mit.edu>
M: 9/8
L: 1/8
K: F	% and/or G dorian
ud2 !segno!|:\
cAG G2G G2d | cAG GAd fed |\
cAG G2G G2A | FAc fed [1 cAd :|[2 cAF |:\
G2g gag g2G |
G2g g2a bag |\
[1 d2e fge f2A | Afe fed cAF :|\
[2 bag bag bag | fge f2d fed |]
